X: 13
T: Coleraine, The
Z: Martial
S: https://thesession.org/tunes/17#setting47623
R: jig
M: 6/8
L: 1/8
K: Amin
|:E2A ABc|B2e e2d|c2A ABc|B2E E2D|
E2A ABc|B2e e2d|cBA ^GAB|1 A3 A2G:|2 A3 A2B||
|:c3 cdc|B2g g2^g|aed cBA|^GAB E2^G|
A^GA BAB|cde fed|cBA ^GAB|1 A3 A2B:|2 A3 A3||

